src/assets/icons/logo.svg

<svg width="196" height="36" viewBox="0 0 196 36" fill="none" xmlns="http://www.w3.org/2000/svg">
<path fill-rule="evenodd" clip-rule="evenodd" d="M60.6229 35.4676C61.1752 35.4676 61.6229 35.0199 61.6229 34.4676V26.1417C61.6229 25.5894 61.1752 25.1417 60.6229 25.1417H51.5428C50.9906 25.1417 50.5428 25.5894 50.5428 26.1417V34.4676C50.5428 35.0199 50.9906 35.4676 51.5428 35.4676L60.6229 35.4676ZM46.5428 35.4676C47.0951 35.4676 47.5428 35.0199 47.5428 34.4676V26.1417C47.5428 25.5894 47.0951 25.1417 46.5428 25.1417H12.9688C12.4165 25.1417 11.9688 25.5894 11.9688 26.1417V34.4676C11.9688 35.0199 12.4165 35.4676 12.9687 35.4676L46.5428 35.4676Z" fill="#009F8F"/>
<path fill-rule="evenodd" clip-rule="evenodd" d="M1 22.8968C0.447715 22.8968 0 22.4491 0 21.8968V13.5709C0 13.0186 0.447715 12.5709 1 12.5709L14.082 12.5709L12.082 12.5709C11.5297 12.5709 11.082 13.0186 11.082 13.5709L11.082 21.8968C11.082 22.4491 10.6343 22.8968 10.082 22.8968L1 22.8968ZM15.082 22.8968C14.5297 22.8968 14.082 22.4491 14.082 21.8968L14.082 12.5709L48.6542 12.5709C49.2065 12.5709 49.6542 13.0186 49.6542 13.5709V21.8968C49.6542 22.4491 49.2065 22.8968 48.6542 22.8968L15.082 22.8968Z" fill="#009F8F"/>
<path fill-rule="evenodd" clip-rule="evenodd" d="M60.6229 10.326C61.1752 10.326 61.6229 9.87832 61.6229 9.32604V1.00012C61.6229 0.447837 61.1752 0.00012207 60.6229 0.00012207H51.543C50.9907 0.00012207 50.543 0.447837 50.543 1.00012V9.32604C50.543 9.87832 50.9907 10.326 51.543 10.326L60.6229 10.326ZM46.543 10.326C47.0953 10.326 47.543 9.87832 47.543 9.32603V1.00012C47.543 0.447836 47.0953 0.00012207 46.543 0.00012207H12.9688C12.4165 0.00012207 11.9688 0.447839 11.9688 1.00012V9.32603C11.9688 9.87832 12.4165 10.326 12.9688 10.326L46.543 10.326Z" fill="#009F8F"/>
<path d="M125.652 1C125.652 0.447716 126.1 0 126.652 0H141.199C145.259 0 148.428 1.04863 150.706 3.14588C153.017 5.24313 154.172 8.25371 154.172 12.1776C154.172 14.8161 153.611 17.0656 152.488 18.926C151.543 20.494 150.268 21.7255 148.666 22.6208C148.17 22.8979 147.945 23.5107 148.198 24.0197L153.159 34.023C153.488 34.6877 153.005 35.4673 152.263 35.4673H145.484C145.104 35.4673 144.757 35.2515 144.588 34.9106L139.643 24.9119C139.474 24.571 139.127 24.3552 138.746 24.3552H135.416C134.864 24.3552 134.416 24.8029 134.416 25.3552V34.4673C134.416 35.0196 133.968 35.4673 133.416 35.4673H126.652C126.1 35.4673 125.652 35.0196 125.652 34.4673V1ZM139.665 16.7949C141.414 16.7949 142.767 16.4567 143.725 15.7801C144.682 15.0698 145.16 13.8689 145.16 12.1776C145.16 10.4186 144.682 9.21777 143.725 8.57506C142.8 7.89853 141.447 7.56026 139.665 7.56026H135.416C134.864 7.56026 134.416 8.00798 134.416 8.56026V15.7949C134.416 16.3472 134.864 16.7949 135.416 16.7949H139.665Z" fill="white"/>
<path d="M103.078 35.4531C99.1878 35.4531 95.7718 34.7579 92.8298 33.3676C89.8878 31.9442 87.5996 29.9249 85.9651 27.3098C84.3634 24.6947 83.5625 21.6161 83.5625 18.0741C83.5625 14.5321 84.3634 11.3874 85.9651 8.63983C87.5996 5.8923 89.8061 3.77372 92.5847 2.28409C95.3959 0.761364 98.5341 0 101.999 0C105.431 0 108.537 0.761364 111.315 2.28409C114.127 3.77372 116.333 5.8923 117.935 8.63983C119.537 11.3874 120.338 14.5321 120.338 18.0741C120.338 20.0603 119.864 22.0299 118.916 23.983C118.452 24.9556 117.93 25.8306 117.348 26.6078C116.79 27.3544 117.287 28.6008 118.219 28.6008H120.22C120.773 28.6008 121.22 29.0485 121.22 29.6008V34.4531C121.22 35.0054 120.773 35.4531 120.22 35.4531H103.078ZM101.999 27.9553C103.732 27.9553 105.317 27.5581 106.755 26.7636C108.194 25.9691 109.338 24.8271 110.188 23.3375C111.038 21.8478 111.463 20.1099 111.463 18.1238C111.463 16.1376 111.038 14.4163 110.188 12.9597C109.37 11.4701 108.243 10.3281 106.804 9.5336C105.366 8.70603 103.764 8.29225 101.999 8.29225C100.201 8.29225 98.5831 8.70603 97.1448 9.5336C95.7065 10.3281 94.5623 11.4701 93.7124 12.9597C92.8952 14.4163 92.4866 16.1376 92.4866 18.1238C92.4866 20.1099 92.8952 21.8478 93.7124 23.3375C94.5623 24.8271 95.7065 25.9691 97.1448 26.7636C98.6158 27.5581 100.234 27.9553 101.999 27.9553Z" fill="white"/>
<path d="M70.623 1C70.623 0.447716 71.0708 0 71.623 0H78.1289C78.6811 0 79.1289 0.447715 79.1289 1V34.4673C79.1289 35.0196 78.6811 35.4673 78.1289 35.4673H71.623C71.0708 35.4673 70.623 35.0196 70.623 34.4673V1Z" fill="white"/>
<path d="M176.917 35.4673C173.475 35.4673 170.358 34.7213 167.566 33.2293C164.807 31.7373 162.615 29.6615 160.992 27.0018C159.401 24.3098 158.605 21.2285 158.605 17.758C158.605 14.2875 159.401 11.2062 160.992 8.51409C162.615 5.82202 164.807 3.72998 167.566 2.23799C170.358 0.745996 173.475 0 176.917 0C180.326 0 183.41 0.745996 186.17 2.23799C188.962 3.72998 191.153 5.82202 192.744 8.51409C194.335 11.2062 195.13 14.2875 195.13 17.758C195.13 21.2285 194.335 24.3098 192.744 27.0018C191.153 29.6615 188.962 31.7373 186.17 33.2293C183.41 34.7213 180.326 35.4673 176.917 35.4673ZM176.917 27.391C178.637 27.391 180.212 27.0018 181.641 26.2234C183.069 25.445 184.205 24.326 185.05 22.8664C185.894 21.4069 186.316 19.704 186.316 17.758C186.316 15.8119 185.894 14.1253 185.05 12.6982C184.238 11.2386 183.118 10.1196 181.689 9.34118C180.261 8.53031 178.67 8.12487 176.917 8.12487C175.131 8.12487 173.524 8.53031 172.095 9.34118C170.667 10.1196 169.53 11.2386 168.686 12.6982C167.875 14.1253 167.469 15.8119 167.469 17.758C167.469 19.704 167.875 21.4069 168.686 22.8664C169.53 24.326 170.667 25.445 172.095 26.2234C173.556 27.0018 175.163 27.391 176.917 27.391Z" fill="white"/>
</svg>

<svg width="196" height="36" fill="none" xmlns="http://www.w3.org/2000/svg"><path fill-rule="evenodd" clip-rule="evenodd" d="M60.623 35.468a1 1 0 0 0 1-1v-8.326a1 1 0 0 0-1-1h-9.08a1 1 0 0 0-1 1v8.326a1 1 0 0 0 1 1h9.08zm-14.08 0a1 1 0 0 0 1-1v-8.326a1 1 0 0 0-1-1H12.969a1 1 0 0 0-1 1v8.326a1 1 0 0 0 1 1h33.574zM1 22.897a1 1 0 0 1-1-1V13.57a1 1 0 0 1 1-1h13.082-2a1 1 0 0 0-1 1v8.326a1 1 0 0 1-1 1H1zm14.082 0a1 1 0 0 1-1-1V12.57h34.572a1 1 0 0 1 1 1v8.326a1 1 0 0 1-1 1H15.082zM60.623 10.326a1 1 0 0 0 1-1V1a1 1 0 0 0-1-1h-9.08a1 1 0 0 0-1 1v8.326a1 1 0 0 0 1 1h9.08zm-14.08 0a1 1 0 0 0 1-1V1a1 1 0 0 0-1-1H12.969a1 1 0 0 0-1 1v8.326a1 1 0 0 0 1 1h33.574z" fill="#009F8F"/><path d="M125.652 1a1 1 0 0 1 1-1h14.547c4.06 0 7.229 1.049 9.507 3.146 2.311 2.097 3.466 5.108 3.466 9.032 0 2.638-.561 4.888-1.684 6.748a10.194 10.194 0 0 1-3.822 3.695c-.496.277-.721.89-.468 1.399l4.961 10.003a1 1 0 0 1-.896 1.444h-6.779a1 1 0 0 1-.896-.556l-4.945-10a1 1 0 0 0-.897-.556h-3.33a1 1 0 0 0-1 1v9.112a1 1 0 0 1-1 1h-6.764a1 1 0 0 1-1-1V1zm14.013 15.795c1.749 0 3.102-.338 4.06-1.015.957-.71 1.435-1.911 1.435-3.602 0-1.76-.478-2.96-1.435-3.603-.925-.676-2.278-1.015-4.06-1.015h-4.249a1 1 0 0 0-1 1v7.235a1 1 0 0 0 1 1h4.249zM103.078 35.453c-3.89 0-7.306-.695-10.248-2.085-2.942-1.424-5.23-3.443-6.865-6.058-1.602-2.615-2.403-5.694-2.403-9.236 0-3.542.801-6.687 2.403-9.434 1.635-2.748 3.841-4.866 6.62-6.356C95.395.761 98.535 0 101.999 0c3.432 0 6.538.761 9.316 2.284a16.411 16.411 0 0 1 6.62 6.356c1.602 2.747 2.403 5.892 2.403 9.434 0 1.986-.474 3.956-1.422 5.909a15.49 15.49 0 0 1-1.568 2.625c-.558.746-.061 1.993.871 1.993h2.001a1 1 0 0 1 1 1v4.852a1 1 0 0 1-1 1h-17.142zm-1.079-7.498c1.733 0 3.318-.397 4.756-1.191 1.439-.795 2.583-1.937 3.433-3.427.85-1.49 1.275-3.227 1.275-5.213 0-1.986-.425-3.708-1.275-5.164-.818-1.49-1.945-2.632-3.384-3.426-1.438-.828-3.04-1.242-4.805-1.242-1.798 0-3.416.414-4.854 1.242-1.438.794-2.583 1.936-3.433 3.426-.817 1.456-1.225 3.178-1.225 5.164 0 1.986.408 3.724 1.225 5.213.85 1.49 1.995 2.632 3.433 3.427 1.47.794 3.089 1.191 4.854 1.191zM70.623 1a1 1 0 0 1 1-1h6.506a1 1 0 0 1 1 1v33.467a1 1 0 0 1-1 1h-6.506a1 1 0 0 1-1-1V1zM176.917 35.467c-3.442 0-6.559-.746-9.351-2.238-2.759-1.492-4.951-3.567-6.574-6.227-1.591-2.692-2.387-5.773-2.387-9.244 0-3.47.796-6.552 2.387-9.244a16.973 16.973 0 0 1 6.574-6.276C170.358.746 173.475 0 176.917 0c3.409 0 6.493.746 9.253 2.238 2.792 1.492 4.983 3.584 6.574 6.276 1.591 2.692 2.386 5.774 2.386 9.244 0 3.47-.795 6.552-2.386 9.244-1.591 2.66-3.782 4.735-6.574 6.227-2.76 1.492-5.844 2.238-9.253 2.238zm0-8.076c1.72 0 3.295-.39 4.724-1.168 1.428-.778 2.564-1.897 3.409-3.357.844-1.46 1.266-3.162 1.266-5.108 0-1.946-.422-3.633-1.266-5.06-.812-1.46-1.932-2.578-3.361-3.357-1.428-.81-3.019-1.216-4.772-1.216-1.786 0-3.393.405-4.822 1.216-1.428.779-2.565 1.898-3.409 3.357-.811 1.427-1.217 3.114-1.217 5.06 0 1.946.406 3.649 1.217 5.108.844 1.46 1.981 2.579 3.409 3.357 1.461.779 3.068 1.168 4.822 1.168z" fill="#fff"/></svg>
